src/symbolic/places/folder-pictures-symbolic.svg

<svg height="16" width="16" xmlns="http://www.w3.org/2000/svg">
    <g color="#000" fill="gray">
        <path d="M11.5 3a1.5 1.5 0 1 0 0 3 1.5 1.5 0 0 0 0-3z" overflow="visible" style="marker:none"/>
        <path d="M1 1v14h14V1zm1 1h12v10H2z" overflow="visible" style="marker:none"/>
        <path d="M6 5.5L3 11h8L8.5 6.5 7.5 8z" overflow="visible" style="marker:none"/>
    </g>
</svg>

<?xml version="1.0" encoding="UTF-8" standalone="no"?>
<svg
   xmlns:dc="http://purl.org/dc/elements/1.1/"
   xmlns:cc="http://creativecommons.org/ns#"
   xmlns:rdf="http://www.w3.org/1999/02/22-rdf-syntax-ns#"
   xmlns:svg="http://www.w3.org/2000/svg"
   xmlns="http://www.w3.org/2000/svg"
   xmlns:sodipodi="http://sodipodi.sourceforge.net/DTD/sodipodi-0.dtd"
   xmlns:inkscape="http://www.inkscape.org/namespaces/inkscape"
   height="16"
   width="16"
   version="1.1"
   id="svg10"
   sodipodi:docname="folder-pictures-symbolic.svg"
   inkscape:version="0.92.5 (2060ec1f9f, 2020-04-08)">
  <metadata
     id="metadata16">
    <rdf:RDF>
      <cc:Work
         rdf:about="">
        <dc:format>image/svg+xml</dc:format>
        <dc:type
           rdf:resource="http://purl.org/dc/dcmitype/StillImage" />
      </cc:Work>
    </rdf:RDF>
  </metadata>
  <defs
     id="defs14" />
  <sodipodi:namedview
     pagecolor="#ffffff"
     bordercolor="#666666"
     borderopacity="1"
     objecttolerance="10"
     gridtolerance="10"
     guidetolerance="10"
     inkscape:pageopacity="0"
     inkscape:pageshadow="2"
     inkscape:window-width="1920"
     inkscape:window-height="975"
     id="namedview12"
     showgrid="false"
     inkscape:zoom="14.75"
     inkscape:cx="8"
     inkscape:cy="8"
     inkscape:window-x="0"
     inkscape:window-y="30"
     inkscape:window-maximized="1"
     inkscape:current-layer="svg10" />
   <defs>
  <style id="current-color-scheme" type="text/css">.ColorScheme-Text { color:#727272; } .ColorScheme-Highlight { color:#5294e2; }</style>
 </defs>
 <path class="ColorScheme-Text" d="M 1 1 L 1 15 L 15 15 L 15 1 L 1 1 z M 2 2 L 14 2 L 14 12 L 2 12 L 2 2 z M 11.5 3 A 1.5 1.5 0 0 0 11.5 6 A 1.5 1.5 0 0 0 11.5 3 z M 6 5.5 L 3 11 L 11 11 L 8.5 6.5 L 7.5 8 L 6 5.5 z" fill="currentColor"/>
</svg>
